public/assets/pop.svg

<svg width="210" height="288" viewBox="0 0 210 288" fill="none" xmlns="http://www.w3.org/2000/svg">
<path d="M12.4531 21.0962L209.321 33.4472L200.8 280.391L20.6878 287.61L12.4531 21.0962Z" fill="#2E5A9C"/>
<path d="M0.234375 0.0180664L197.102 12.3691L188.581 272.818L8.46901 280.037L0.234375 0.0180664Z" fill="#F87980"/>
<path d="M43.0476 63L41.1756 39.708H32.9676L32.1396 43.272L29.8716 51.48H29.4396L27.3876 43.02L26.7036 39.708H18.3876L16.1196 63H22.1316L22.4916 55.26L22.9956 50.076H23.4276L26.5236 60.804H31.9596L35.7036 50.076H36.1356L36.5316 55.944L36.7116 63H43.0476ZM56.8595 39.312C49.1555 39.312 44.7995 43.812 44.7995 51.552C44.7995 59.22 48.6515 63.396 56.4635 63.396C58.0475 63.396 59.7755 63.252 61.4675 62.712L62.0435 57.024L61.4675 56.664C60.1715 57.132 58.3355 57.42 57.0395 57.42C53.8715 57.42 52.4315 55.368 52.4315 50.724C52.4315 46.728 53.6915 45.18 56.5715 45.18C57.9395 45.18 59.7395 45.612 60.9995 46.296L61.4675 46.008L62.6915 40.284C60.9635 39.672 59.0195 39.312 56.8595 39.312ZM78.0793 55.332L78.4753 39.708H68.0713L67.7833 44.424L68.1793 44.892L71.2393 44.784L71.4913 56.052V58.32C71.4913 60.408 70.6633 61.56 68.1793 62.748V63.324L70.0513 67.032C76.2073 65.232 78.1513 62.964 78.1513 58.536L78.0793 55.332ZM92.8502 39.276C85.4342 39.276 81.1862 43.812 81.1862 51.768C81.1862 59.184 85.0382 63.432 91.8062 63.432C99.2222 63.432 103.47 58.824 103.47 50.76C103.47 43.452 99.6182 39.276 92.8502 39.276ZM92.2022 45.036C95.1182 45.036 95.9102 46.512 95.9102 52.308C95.9102 56.916 95.1542 58.104 92.4542 58.104C89.5382 58.104 88.7462 56.628 88.7462 50.796C88.7462 46.224 89.5022 45.036 92.2022 45.036ZM127.098 55.44L127.494 39.708H120.15L120.33 48.528L117.018 48.6L113.382 48.528L113.598 39.708H106.254L106.614 56.16L106.254 63H113.49L113.202 55.44L113.238 54.396L116.586 54.288L120.474 54.36L120.51 56.16L120.15 63H127.386L127.098 55.44ZM151.9 63L145.528 39.708H136.816L129.76 63H136.816L137.428 59.112L140.38 58.968L143.908 59.04L143.944 59.148L144.592 63H151.9ZM142.828 53.784L140.812 53.82L138.796 53.784L140.812 46.152H141.244L142.828 53.784ZM175.262 55.404L175.658 39.564L169.034 39.96L169.25 52.164H168.818L162.266 39.708H154.418L154.778 56.16L154.418 63H160.97L160.682 54.576L160.718 50.544H161.15L167.702 63H175.55L175.262 55.404Z" fill="#2C1E25"/>
<g clip-path="url(#clip0)">
<path d="M41.7055 182.256L21.2031 180.725L22.2131 111.256H42.7155L41.7055 182.256Z" fill="#FFF1F0"/>
<path d="M64.2798 179.194L44.7873 181.746L43.7773 111.256H65.2897L64.2798 179.194Z" fill="#FFF1F0"/>
<path d="M87.9108 181.236L67.4084 179.194L66.3984 111.256H87.9108V181.236Z" fill="#FFF1F0"/>
<path d="M109.475 179.194L88.9727 180.215V111.256H110.485L109.475 179.194Z" fill="#FFF1F0"/>
<path d="M131.591 179.194L111.594 180.725V111.256H133.106L131.591 179.194Z" fill="#FFF1F0"/>
<path d="M155.68 180.725L135.178 179.704L134.168 111.256H155.68V180.725Z" fill="#FFF1F0"/>
<path d="M177.194 179.194L156.691 180.725V111.256H178.204L177.194 179.194Z" fill="#FFF1F0"/>
<path d="M49.0298 149.283L36.2031 148.262V111.256H50.0397L49.0298 149.283Z" fill="#2C1E25"/>
<path d="M72.8132 148.262L59.9865 149.793L58.9766 111.256H72.8132V148.262Z" fill="#2C1E25"/>
<path d="M117.958 148.262L105.636 149.283L104.121 111.256H117.958V148.262Z" fill="#2C1E25"/>
<path d="M139.064 149.793L126.742 148.262V111.256H140.579L139.064 149.793Z" fill="#2C1E25"/>
<path d="M163.106 148.262L150.28 149.793L149.27 111.256H163.106V148.262Z" fill="#2C1E25"/>
</g>
<path d="M46.0338 241.867C48.1138 241.867 49.8168 242.335 51.1428 243.271C52.4688 244.181 53.1318 245.468 53.1318 247.132C53.1318 248.198 52.8068 249.329 52.1568 250.525C51.5328 251.695 50.4668 253.034 48.9588 254.542L47.2428 256.258L47.3598 256.453H50.3628L54.1458 256.063L54.5358 256.531L53.6778 262.537L48.0618 262.225H39.0918L37.6878 262.342L37.3368 262.069V257.467L42.3288 253.177C43.3948 252.215 44.1878 251.422 44.7078 250.798C45.2538 250.174 45.5268 249.641 45.5268 249.199C45.5268 248.601 45.0718 248.302 44.1618 248.302C43.4598 248.302 42.6668 248.484 41.7828 248.848C40.8988 249.186 40.0538 249.654 39.2478 250.252H38.4288L37.1418 244.324C40.3658 242.686 43.3298 241.867 46.0338 241.867ZM70.6428 242.998L70.5258 247.522H73.1778L77.7018 247.405L78.1308 247.951L77.6628 253.645L72.6318 253.528H70.3698V254.035L70.6818 262.225H62.8428L63.2328 254.815L62.8428 236.992H79.6908L80.1198 237.538L79.6128 243.232L73.3728 242.998H70.6428ZM92.5873 243.778C92.9253 243.778 93.2243 243.804 93.4843 243.856V250.681L92.7433 250.915C92.4053 250.707 91.9373 250.603 91.3393 250.603C90.7673 250.603 90.1563 250.733 89.5063 250.993C88.8823 251.253 88.2973 251.617 87.7513 252.085V254.035L88.0633 262.225H80.4583L80.8093 254.815L80.5363 244.246L87.7513 243.739V247.171H88.1023C89.2203 244.909 90.7153 243.778 92.5873 243.778ZM103.243 243.349C105.635 243.349 107.481 243.843 108.781 244.831C110.081 245.793 110.731 247.184 110.731 249.004C110.731 249.524 110.679 250.902 110.575 253.138C110.471 255.114 110.419 256.219 110.419 256.453C110.419 256.739 110.458 256.947 110.536 257.077C110.64 257.207 110.783 257.272 110.965 257.272C111.147 257.272 111.368 257.233 111.628 257.155L112.096 257.545L111.433 261.445C110.471 262.121 109.262 262.511 107.806 262.615C107.052 262.563 106.376 262.303 105.778 261.835C105.206 261.367 104.764 260.704 104.452 259.846H104.179C103.035 261.172 101.735 262.108 100.279 262.654C98.3026 262.628 96.7166 262.082 95.5206 261.016C94.3506 259.924 93.7656 258.442 93.7656 256.57C93.7656 253.684 95.2606 252.033 98.2506 251.617L103.789 250.876V250.408C103.789 249.732 103.646 249.251 103.36 248.965C103.1 248.679 102.632 248.536 101.956 248.536C100.5 248.536 98.6146 249.16 96.3006 250.408L95.8326 250.096L95.0136 245.299C96.2096 244.675 97.5226 244.194 98.9526 243.856C100.409 243.518 101.839 243.349 103.243 243.349ZM101.566 254.503C101.202 254.555 100.929 254.698 100.747 254.932C100.591 255.14 100.513 255.465 100.513 255.907C100.513 256.947 100.994 257.467 101.956 257.467C102.58 257.467 103.191 257.259 103.789 256.843V254.191L101.566 254.503ZM124.924 262.225L125.314 251.929C125.314 250.343 124.703 249.55 123.481 249.55C122.883 249.55 122.272 249.732 121.648 250.096V254.035L121.96 262.225H114.355L114.706 254.815L114.433 244.246L121.648 243.739V246.469H121.921C123.273 245.117 124.794 244.155 126.484 243.583C128.434 243.583 129.916 244.025 130.93 244.909C131.97 245.793 132.464 247.067 132.412 248.731L132.256 254.035L132.529 262.225H124.924ZM149.882 251.968C151.104 254.464 152.755 257.467 154.835 260.977L154.796 261.757C153.106 262.095 150.727 262.407 147.659 262.693L146.879 262.303C145.345 259.495 144.045 256.596 142.979 253.606V254.035L143.291 262.225H135.686L136.037 254.815L135.764 235.354L143.33 234.847L143.018 251.539L145.982 246.001L146.801 243.817H154.562L149.882 251.968Z" fill="#2C1E25"/>
<path d="M6.4375 210.672L199.696 197.081V208.654L6.74966 221.893L6.4375 210.672Z" fill="#2E5A9C"/>
<path d="M19.8945 209.721L6.40625 210.67L6.56626 221.907L20.625 220.944L19.8945 209.721Z" fill="#3F7AD3"/>
<defs>
<clipPath id="clip0">
<rect width="157" height="71" fill="white" transform="translate(21.2031 111.256)"/>
</clipPath>
</defs>
</svg>

<svg width="210" height="288" fill="none" xmlns="http://www.w3.org/2000/svg"><path d="M12.453 21.096l196.868 12.351-8.521 246.944-180.112 7.219-8.235-266.514z" fill="#2E5A9C"/><path d="M.234.018L197.102 12.37l-8.521 260.449-180.112 7.219L.234.018z" fill="#F87980"/><path d="M43.048 63l-1.872-23.292h-8.208l-.828 3.564-2.268 8.208h-.432l-2.052-8.46-.684-3.312h-8.316L16.12 63h6.012l.36-7.74.504-5.184h.432l3.096 10.728h5.436l3.744-10.728h.432l.396 5.868.18 7.056h6.336zm13.811-23.688c-7.703 0-12.06 4.5-12.06 12.24 0 7.668 3.852 11.844 11.665 11.844 1.584 0 3.312-.144 5.004-.684l.575-5.688-.575-.36c-1.297.468-3.133.756-4.429.756-3.168 0-4.608-2.052-4.608-6.696 0-3.996 1.26-5.544 4.14-5.544 1.369 0 3.169.432 4.428 1.116l.468-.288 1.224-5.724c-1.727-.612-3.672-.972-5.832-.972zm21.22 16.02l.396-15.624H68.071l-.288 4.716.396.468 3.06-.108.252 11.268v2.268c0 2.088-.828 3.24-3.312 4.428v.576l1.872 3.708c6.156-1.8 8.1-4.068 8.1-8.496l-.072-3.204zM92.85 39.276c-7.416 0-11.664 4.536-11.664 12.492 0 7.416 3.852 11.664 10.62 11.664 7.416 0 11.664-4.608 11.664-12.672 0-7.308-3.852-11.484-10.62-11.484zm-.648 5.76c2.916 0 3.708 1.476 3.708 7.272 0 4.608-.756 5.796-3.456 5.796-2.916 0-3.708-1.476-3.708-7.308 0-4.572.756-5.76 3.456-5.76zm34.896 10.404l.396-15.732h-7.344l.18 8.82-3.312.072-3.636-.072.216-8.82h-7.344l.36 16.452-.36 6.84h7.236l-.288-7.56.036-1.044 3.348-.108 3.888.072.036 1.8-.36 6.84h7.236l-.288-7.56zM151.9 63l-6.372-23.292h-8.712L129.76 63h7.056l.612-3.888 2.952-.144 3.528.072.036.108.648 3.852h7.308zm-9.072-9.216l-2.016.036-2.016-.036 2.016-7.632h.432l1.584 7.632zm32.434 1.62l.396-15.84-6.624.396.216 12.204h-.432l-6.552-12.456h-7.848l.36 16.452-.36 6.84h6.552l-.288-8.424.036-4.032h.432L167.702 63h7.848l-.288-7.596z" fill="#2C1E25"/><g clip-path="url(#clip0)"><path d="M41.706 182.256l-20.503-1.531 1.01-69.469h20.502l-1.01 71zM64.28 179.194l-19.493 2.552-1.01-70.49H65.29l-1.01 67.938zM87.91 181.236l-20.502-2.042-1.01-67.938h21.513v69.98zM109.475 179.194l-20.502 1.021v-68.959h21.512l-1.01 67.938zM131.591 179.194l-19.997 1.531v-69.469h21.512l-1.515 67.938zM155.68 180.725l-20.502-1.021-1.01-68.448h21.512v69.469zM177.194 179.194l-20.503 1.531v-69.469h21.513l-1.01 67.938z" fill="#FFF1F0"/><path d="M49.03 149.283l-12.827-1.021v-37.006H50.04l-1.01 38.027zM72.813 148.262l-12.827 1.531-1.01-38.537h13.837v37.006zM117.958 148.262l-12.322 1.021-1.515-38.027h13.837v37.006zM139.064 149.793l-12.322-1.531v-37.006h13.837l-1.515 38.537zM163.106 148.262l-12.826 1.531-1.01-38.537h13.836v37.006z" fill="#2C1E25"/></g><path d="M46.034 241.867c2.08 0 3.783.468 5.109 1.404 1.326.91 1.989 2.197 1.989 3.861 0 1.066-.325 2.197-.975 3.393-.624 1.17-1.69 2.509-3.198 4.017l-1.716 1.716.117.195h3.003l3.783-.39.39.468-.858 6.006-5.616-.312h-8.97l-1.404.117-.351-.273v-4.602l4.992-4.29c1.066-.962 1.859-1.755 2.379-2.379.546-.624.819-1.157.819-1.599 0-.598-.455-.897-1.365-.897-.702 0-1.495.182-2.38.546a10.6 10.6 0 00-2.534 1.404h-.82l-1.286-5.928c3.224-1.638 6.188-2.457 8.892-2.457zm24.609 1.131l-.117 4.524h2.652l4.524-.117.429.546-.468 5.694-5.031-.117H70.37v.507l.312 8.19h-7.84l.39-7.41-.39-17.823h16.849l.429.546-.507 5.694-6.24-.234h-2.73zm21.944.78c.338 0 .637.026.897.078v6.825l-.74.234c-.339-.208-.807-.312-1.405-.312-.572 0-1.183.13-1.833.39a6.578 6.578 0 00-1.755 1.092v1.95l.312 8.19h-7.605l.351-7.41-.273-10.569 7.215-.507v3.432h.351c1.118-2.262 2.613-3.393 4.485-3.393zm10.656-.429c2.392 0 4.238.494 5.538 1.482 1.3.962 1.95 2.353 1.95 4.173 0 .52-.052 1.898-.156 4.134-.104 1.976-.156 3.081-.156 3.315 0 .286.039.494.117.624a.52.52 0 00.429.195c.182 0 .403-.039.663-.117l.468.39-.663 3.9c-.962.676-2.171 1.066-3.627 1.17a3.626 3.626 0 01-2.028-.78c-.572-.468-1.014-1.131-1.326-1.989h-.273c-1.144 1.326-2.444 2.262-3.9 2.808-1.976-.026-3.562-.572-4.758-1.638-1.17-1.092-1.755-2.574-1.755-4.446 0-2.886 1.495-4.537 4.485-4.953l5.538-.741v-.468c0-.676-.143-1.157-.429-1.443-.26-.286-.728-.429-1.404-.429-1.456 0-3.341.624-5.655 1.872l-.468-.312-.82-4.797a16.864 16.864 0 013.94-1.443 18.938 18.938 0 014.29-.507zm-1.677 11.154c-.364.052-.637.195-.819.429-.156.208-.234.533-.234.975 0 1.04.481 1.56 1.443 1.56.624 0 1.235-.208 1.833-.624v-2.652l-2.223.312zm23.358 7.722l.39-10.296c0-1.586-.611-2.379-1.833-2.379-.598 0-1.209.182-1.833.546v3.939l.312 8.19h-7.605l.351-7.41-.273-10.569 7.215-.507v2.73h.273c1.352-1.352 2.873-2.314 4.563-2.886 1.95 0 3.432.442 4.446 1.326 1.04.884 1.534 2.158 1.482 3.822l-.156 5.304.273 8.19h-7.605zm24.958-10.257c1.222 2.496 2.873 5.499 4.953 9.009l-.039.78c-1.69.338-4.069.65-7.137.936l-.78-.39a60.478 60.478 0 01-3.9-8.697v.429l.312 8.19h-7.605l.351-7.41-.273-19.461 7.566-.507-.312 16.692 2.964-5.538.819-2.184h7.761l-4.68 8.151z" fill="#2C1E25"/><path d="M6.438 210.672l193.258-13.591v11.573L6.75 221.893l-.313-11.221z" fill="#2E5A9C"/><path d="M19.895 209.721l-13.489.949.16 11.237 14.059-.963-.73-11.223z" fill="#3F7AD3"/><defs><clipPath id="clip0"><path fill="#fff" transform="translate(21.203 111.256)" d="M0 0h157v71H0z"/></clipPath></defs></svg>
